rospo-newyear-dark/symbolic/emotes/face-embarrassed-symbolic.svg

<svg height="16" width="16" xmlns="http://www.w3.org/2000/svg"><path d="m8 1c-3.87 0-7 3.13-7 7 0 3.86 3.13 7 7 7s7-3.14 7-7c0-3.87-3.13-7-7-7zm-3 4c .55 0 1 .45 1 1s-.45 1-1 1-1-.45-1-1 .45-1 1-1zm6 0c .55 0 1 .45 1 1s-.45 1-1 1-1-.45-1-1 .45-1 1-1zm-7 2.5c.83 0 1.5.67 1.5 1.5 0 .82-.67 1.5-1.5 1.5s-1.5-.68-1.5-1.5c0-.83.67-1.5 1.5-1.5zm8 0c .83 0 1.5.67 1.5 1.5 0 .82-.67 1.5-1.5 1.5s-1.5-.68-1.5-1.5c0-.83.67-1.5 1.5-1.5zm-5.5 4.5h3c .28 0 .5.18.5.43v.13c0 .25-.22.44-.5.44h-3c-.28 0-.5-.19-.5-.44v-.13c0-.25.22-.43.5-.43z" fill="#d3dae3"/><path d="m4 7.5c-.83 0-1.5.67-1.5 1.5s.67 1.5 1.5 1.5 1.5-.67 1.5-1.5-.67-1.5-1.5-1.5zm8 0c-.83 0-1.5.67-1.5 1.5s.67 1.5 1.5 1.5 1.5-.67 1.5-1.5-.67-1.5-1.5-1.5z" fill="#d3dae3" opacity=".3"/></svg>

<svg xmlns="http://www.w3.org/2000/svg" width="16" height="16" version="1.1">
 <path style="fill:#d3dae3" d="M 8,1 C 4.13,1 1,4.13 1,8 1,11.86 4.13,15 8,15 11.87,15 15,11.86 15,8 15,4.13 11.87,1 8,1 Z M 5,5 C 5.55,5 6,5.45 6,6 6,6.55 5.55,7 5,7 4.45,7 4,6.55 4,6 4,5.45 4.45,5 5,5 Z M 11,5 C 11.55,5 12,5.45 12,6 12,6.55 11.55,7 11,7 10.45,7 10,6.55 10,6 10,5.45 10.45,5 11,5 Z M 4,7.5 C 4.83,7.5 5.5,8.17 5.5,9 5.5,9.82 4.83,10.5 4,10.5 3.17,10.5 2.5,9.82 2.5,9 2.5,8.17 3.17,7.5 4,7.5 Z M 12,7.5 C 12.83,7.5 13.5,8.17 13.5,9 13.5,9.82 12.83,10.5 12,10.5 11.17,10.5 10.5,9.82 10.5,9 10.5,8.17 11.17,7.5 12,7.5 Z M 6.5,12 H 9.5 C 9.78,12 10,12.18 10,12.43 V 12.56 C 10,12.81 9.78,13 9.5,13 H 6.5 C 6.22,13 6,12.81 6,12.56 V 12.43 C 6,12.18 6.22,12 6.5,12 Z"/>
 <path style="opacity:0.3;fill:#d3dae3" d="M 4,7.5 C 3.17,7.5 2.5,8.17 2.5,9 2.5,9.83 3.17,10.5 4,10.5 4.83,10.5 5.5,9.83 5.5,9 5.5,8.17 4.83,7.5 4,7.5 Z M 12,7.5 C 11.17,7.5 10.5,8.17 10.5,9 10.5,9.83 11.17,10.5 12,10.5 12.83,10.5 13.5,9.83 13.5,9 13.5,8.17 12.83,7.5 12,7.5 Z"/>
</svg>
